theme/icons/virus-search.svg

<svg fill="none" height="24" stroke="#f4f4f7" stroke-linecap="round" stroke-linejoin="round" stroke-width="2" width="24" xmlns="http://www.w3.org/2000/svg"><path d="m0 0h24v24h-24z" stroke="none"/><path d="m17 12a5 5 0 1 0 -5 5m0-10v-4m-1 0h2m2.536 5.464 2.828-2.828m-.707-.707 1.414 1.414m-2.071 5.657h4m0-1v2m-9 4v4m1 0h-2m-2.536-5.464-2.828 2.828m.707.707-1.413-1.414m2.07-5.657h-4m0 1v-2m5.464-2.536-2.828-2.828m-.707.707 1.414-1.413"/><circle cx="17.5" cy="17.5" r="2.5"/><path d="m19.5 19.5 2.5 2.5"/></svg>

<svg fill="none" height="24" stroke="#f4f4f7" stroke-linecap="round" stroke-linejoin="round" stroke-width="2" width="24" xmlns="http://www.w3.org/2000/svg">
    <path d="M0 0h24v24H0z" stroke="none"/>
    <path d="M17 12a5 5 0 1 0-5 5m0-10V3m-1 0h2m2.536 5.464 2.828-2.828m-.707-.707 1.414 1.414M17 12h4m0-1v2m-9 4v4m1 0h-2m-2.536-5.464-2.828 2.828m.707.707L4.93 17.657M7 12H3m0 1v-2m5.464-2.536L5.636 5.636m-.707.707L6.343 4.93"/>
    <circle cx="17.5" cy="17.5" r="2.5"/>
    <path d="M19.5 19.5 22 22"/>
</svg>
